X:1
T:Tamaulipas, 77.77
T:Tamaulipas, 77.77
T:William Wallace Gilchrist, 1901
T:Public Domain Courtesy of the Cyber Hymnal™
C:William Wallace Gilchrist, 1901
Z:Public Domain
Z:Courtesy of the Cyber Hymnal™
%%score ( 1 2 ) ( 3 4 )
L:1/8
Q:1/4=130
M:3/4
K:C
V:1 treble 
V:2 treble 
V:3 bass 
V:4 bass 
V:1
 [CG]4 [CA]2 | [Cc]4 [CG]2 | [CE]4 [B,D]2 | C6 | [EA]4 [Ec]2 | [Ge]4 c2 | [Gc]4 [FB]2 | [Ec]6 | %8
 [Ec]4 [Fd]2 | [FA]4 F2 | [FA]4 [EG]2 | F6 | (F2 E2) [B,D]2 | [CG]4 [EA]2 | [Gc]4 [FB]2 | [Ec]6 |] %16
V:2
 x6 | x6 | x6 | C6 | x6 | x4 (GA) | x6 | x6 | x6 | x4 F2 | x6 | F6 | B,4 x2 | x6 | x6 | x6 |] %16
V:3
 [C,E,]4 [C,F,]2 | [C,E,]4 ([E,G,][F,A,]) | G,4 [G,,F,]2 | [C,E,]6 | [A,,C]4 [A,C]2 | [E,C]4 C2 | %6
 [G,E]4 [G,D]2 | [C,C]6 | [C,G,]4 [_B,,_B,]2 | [F,C]4 ([A,,C][_B,,D]) | [C,C]4 [C,_B,]2 | [D,A,]6 | %12
 ([G,,A,]2 G,2) [F,G,]2 | [E,G,]4 [C,C]2 | [G,,C]4 [G,D]2 | [C,C]6 |] %16
V:4
 x6 | x6 | G,4 x2 | x6 | x6 | x4 (E,F,) | x6 | x6 | x6 | x6 | x6 | x6 | x2 G,2 x2 | x6 | x6 | x6 |] %16

